X:135
T:Khosn, kale mazeltov
O:klezmer
C:Klezmer
M:4/4
L:1/8
Q:1/4=126
K:Eb
V:1
Gc e |:"Cm" g2 g2 ^f2 g2 |ed c3 Gc e|g2 g2 ^f2 g2 |
"Cm" =ab "G7" g3 g=a =b|"Cm" c'2 g2 ^f2 g2 |ed c3 cd e|e/"Fm" g/ (ff) e"G7" g/^f/ ee/d/ c|
|1 "Cm" c4 zG "G" ce :|2 "Cm" c4 zG "Bb" eg || |:"Eb" b2 b2 =a2 b2 |~gf e3 Be g|
b2 b2 =a2 b2 |"Eb" c'^c' b3 "Bb" bc' d'|"Eb" e'2 b2 =a2 b2 |~gf e3 cd e|
"Fm" e/g/ (ff) e"G7" g/^f/ ee/d/ c|"Cm" c4 |1 zB "Bb" eg :|2 "Cm" c4 zG "G" ce |]
e/"Fm" g/(f f)e z/"G" g/^f/g/ g/=a/b/=b/ |"Cm" c'z "G" gz c"Cm" z z2 |]





